X:1
T:Stenka Razin
M:3/4
L:1/8
K:G
 DD| G3 FA G| G2 F2 DD| c3 Ad A| B4 GG| e3 dc e| d2 B2 DD| B3 Ac F|\
 G4 GG| e3 dc e| d2 B2 DD| B3 Ac F| G4||
